X: 9522
T: Darkey's Dream
R: barndance
M: 4/4
K: Gmajor
|:G/F/E|D2 EF G2 B2|A2 GA B2 d2|g2 fe dB G/F/E|G/A/G FG A2 d2|
D2 EF GBBG|A/B/A GA Bddf|g/a/g fe dB G/A/B|A^GAB =G2:|
B/c/d|gfga gd B2|dedB d2 ef|gfga gd B2|dedB A4|
g2 ga gdBc|d2 d^c d2 ef|g2 fg e2 de|c2 Bc A2 d2|
D2 EF G2 B2|ABGA B/c/d d/e/f|g2 fe dBGB|GEFG A2 d2|
D2 EF GBBG|A2 GA Bddf|g2 fe dB G2|A^GAB =G2||

